X: 32152
T: Peter Piper Picked A Peck Of Pickled Peppers
R: reel
M: 4/4
K: Adorian
eA ~A2 ABcA|GABc d/e/f gf|eA ~A2 A/B/c BA|GA B/A/G ABcd|
eA^GA EA c/B/A|G2 Bc dGgf|eA^GA EAGA|G2 BG A2 B/c/d||
eAaA gAfA|dBBc dgfg|eAaA gAfA|dgfg dG B/c/d|
e2 aA gAeA|GdBG dGBd|eA ~A2 EA ~A2|GABG ABcd||

